client/src/assets/email.svg

<svg viewBox="0 0 512 512" xmlns="http://www.w3.org/2000/svg"><g fill="#34495e"><path d="m256 512c-141.16 0-256-114.84-256-256s114.84-256 256-256 256 114.84 256 256-114.84 256-256 256zm0-490.54c-129.32 0-234.54 105.21-234.54 234.54s105.22 234.54 234.54 234.54 234.54-105.21 234.54-234.54-105.21-234.54-234.54-234.54z"/><path d="m202.59 255-91 91a19.24 19.24 0 0 1 -2.78-10v-160a19.21 19.21 0 0 1 3.6-11.19zm53.41 25.55a42.2 42.2 0 0 0 30-12.42l108.31-108.34a19.18 19.18 0 0 0 -10.49-3.11h-255.64a19.21 19.21 0 0 0 -10.49 3.11l108.31 108.34a42.22 42.22 0 0 0 30 12.42zm35.14-7.27a49.55 49.55 0 0 1 -35.14 14.53 49.5 49.5 0 0 1 -35.07-14.53l-13.16-13.17-91.26 91.24a19.36 19.36 0 0 0 11.71 4h255.6a19.38 19.38 0 0 0 11.72-4l-91.26-91.24zm108.43-108.46-90.17 90.18 91 91a19.33 19.33 0 0 0 2.77-10v-160a19.19 19.19 0 0 0 -3.6-11.18z"/></g></svg>

<svg id="Layer_1" data-name="Layer 1" xmlns="http://www.w3.org/2000/svg" viewBox="0 0 512 512"><title>email-marketing</title><g id="email-marketing"><g id="label"><path d="M256,512C114.84,512,0,397.16,0,256S114.84,0,256,0,512,114.84,512,256,397.16,512,256,512Zm0-490.54C126.68,21.46,21.46,126.67,21.46,256S126.68,490.54,256,490.54,490.54,385.33,490.54,256,385.33,21.46,256,21.46Z" fill="#34495e"/></g><path id="email-marketing-2" data-name="email-marketing" d="M202.59,255l-91,91a19.24,19.24,0,0,1-2.78-10V176a19.21,19.21,0,0,1,3.6-11.19ZM256,280.55a42.2,42.2,0,0,0,30-12.42L394.31,159.79a19.18,19.18,0,0,0-10.49-3.11H128.18a19.21,19.21,0,0,0-10.49,3.11L226,268.13A42.22,42.22,0,0,0,256,280.55Zm35.14-7.27A49.55,49.55,0,0,1,256,287.81h0a49.5,49.5,0,0,1-35.07-14.53l-13.16-13.17-91.26,91.24a19.36,19.36,0,0,0,11.71,4H383.82a19.38,19.38,0,0,0,11.72-4l-91.26-91.24ZM399.57,164.82,309.4,255l91,91a19.33,19.33,0,0,0,2.77-10V176A19.19,19.19,0,0,0,399.57,164.82Z" fill="#34495e"/></g></svg>
